X: 15365
T: Glasgow City Police Pipers
R: jig
M: 6/8
K: Gmajor
|:D3 FdF|E3 Fdd|D3 FdF|Edd BAF|
D3 FdF|E3 Fdd|d2 A BAF|E3 Fdd:|
|:Bdd Add|Fdd Ddd|Bdd Add|Fdd Edd|
Bdd Add|Fdd Ddd|d2 A BAF|E3 Fdd:|
|:D3 Fdd|E3 Fdd|D3 Fdd|Edd Fdd|
D3 Fdd|E3 Fdd|d2 A BAF|E3 Fdd:|
|:Bdd Add|Fdd Edd|Bdd Add|Fdd Add|
Bdd Add|Fdd Edd|d2 A BAF|E3 Fdd:|

